X:576
T:Marquis of Huntly's Highland Fling
C:George Jenkins
B:Kerr's Merry Melodies
Z:Nigel Gatherer
L:1/8
M:4/4
K:D
A | d<df>d    g>ef>d | Bd       c<AA>c  | 
    d<df>d    g>ef>d | B>e d/c/B/A/ d2-  d :|
B | A>D F/E/D A>Bd>f | g>ef>d       e>dB<d  |
    A>D F/E/D A>Bd>b | a<fe>f       d2-  d :|]
